X:1
T:Piano Concerto No. 21 in C-Major
T:Piano Concerto No. 21 in C-Major, K467
T:2nd Movement
T:Wolfgang Amadeus Mozart
T:Aranged for 2 pianos by Hans Bischoff (circa 1886) 
C:Wolfgang Amadeus Mozart
Z:Aranged for 2 pianos by Hans Bischoff
%%score { 1 | ( 2 3 ) } { ( 4 7 8 ) | ( 5 6 ) }
L:1/8
Q:1/4=80
M:4/4
K:F
V:1 treble nm="Piano I" snm="Pno. I"
V:2 bass 
V:3 bass 
V:4 treble nm="Piano II" snm="Pno. II"
V:7 treble 
V:8 treble 
V:5 bass 
V:6 bass 
V:1
"^Andante" z8 | z8 | z8 | z8 | z8 | z8 | z8 | z8 | z8 | z8 | z8 | z8 | z8 | z8 | z8 | z8 | z8 | %17
 z8 | z8 | z8 | z8 | z8 |"^Solo" z8 |!pp! f7/2 c/ a7/2 f/ | c'6 b/a/g/f/ | ^f2!pp! g2 z4 | %26
!pp! c4 e2 g2 | b4- bd'c'b | ^ga a2 z4!pp! |!mf! c'4[K:bass]!mp! A,,3 A,, | C,B,, B,,2 z4 | %31
[K:treble]!f! d'4[K:bass]!mp! =B,,3 B,, | C,2[K:treble]!f!!>(! c'4 _b/a/g/!>)!!mp!f/ | %33
!>(! e/4f/4e/4f/4e/4f/4e/4f/4e/4f/4e/4f/4e/4f/4e/4f/4e/4f/4e/4f/4e/4f/4e/4f/4e/4f/4e/4f/4d/e/!>)! | %34
!pp! f2 z2 z4 | z8 |!pp!"^Solo"{/A} a z a2- (3afd (3ge^c | d/e/4d/4^c/4d/4e/ f2 z fga | %38
{/eg} b z b2- b/g/g/e/ e/c/g/B/ | cTB A3 cfa | c'g g4 fe | ^c2 d2 z ddd | %42
 d/e/4d/4^c/4d/4e/ ^f/g/4f/4e/4f/4g/ a/b/4a/4g/4a/4=b/ c'>=c |{/c} =BA/G/ G2 z2!mf! g2 | %44
 _a4- (3ad^c (3d_ef | g4- (3g=c=B (3cd_e | f4- (3f=BA (3Bcd |"_dim." _e4- (3eA^G (3A=Bc | %48
 d4- (3d=G^F (3GA=B |{/c} c'4 =bagf | d6 g2 |!pp! f2 e2 z4 |!p!{/c} c'4!>(! =bagf!>)! |!p! d6 g2 | %54
!p! c2 z2 z4 | z8 | z8 |!f!"^Solo" G8 | b8 |!>(! a4 g/4a/4g/4a/4g/4a/4g/4a/4g/4a/4g/4a/4 f/g/!>)! | %60
!p! f2 z2 z4 |!mf! b4 f2 g/4f/4_e/4f/4 g | B2 A2 z3/2 _e<c'a/ | _e' c'2 a2 f2 _e | fT_e d2 z4 | %65
 z4 (3z _e^f (3ac'_e' | z4 (3z Bd (3gbd' | z4 (3z _d=e (3gb_d' | z4 (3z _Ac (3f_ac' | c'=b _a4 gf | %70
 f!>(!edc =Bc_dc!>)! |!p! c!>(!d/4c/4B/4c/4 _e>_d de/4d/4c/4d/4 f>e!>)! |!pp! _e7/2 c/ _a>e c'>a | %73
 _e'6 _d'/c'/_b/_a/ | =ab b2 z2 _e2 | _e3 f/4e/4=d/4e/4 g2 b2 | _d'3 c'/b/ _a/g/f/_e/ =d/e/f/_d/ | %77
 _eT_d c2 z"^cresc." e/=d/ f/e/_d/c/ | B=A z c' z!p! _e' z a | %79
!pp! c'2 b2!mf! z/ f/=e/f/ _g/f/_e/=d/ | c=B z d' z f' z =b | d'2 c'2 z2!f! c'2 | %82
 _d'4- (3d'g^f (3g_ab | c'4- (3c'=fe (3fg_a | b4-"_dim." (3bed (3efg | _a4- (3ad^c (3def | %86
 g4 (3gc^c (3d_e=e |!p! f4 ed cB | G6 c2 | B2 A2 z4 |!p! f4 ed cB | G6 c2 | F2 z2 z4 | %93
!mf! c'4[K:bass]!mp! A,,3 A,, | C,B,, B,,2 z4 |[K:treble]!f! d'4[K:bass]!mp! =B,,3 B,, | %96
 C,2[K:treble]!f!!>(! f'3!>)! c'a!mp!f | %97
!>(! e/4f/4e/4f/4e/4f/4e/4f/4e/4f/4e/4f/4e/4f/4e/4f/4 g/4a/4g/4a/4g/4a/4g/4a/4g/4a/4g/4a/4f/g/!>)! | %98
!pp! f2 z2 z2!p! a>f |!<(! c'2 c'2 c'2 c'2 | c'2!<)!!mp! f'2 z2 a>f | %101
!>(! c'2 c'2 c'3 (3b/a/g/!>)! |!pp! f2 z2!pp! [cc']2 z2 |!pp! [ff']2 z2 z4 |] %104
V:2
 z8 | z8 | z8 | z8 | z8 | z8 | z8 | z8 | z8 | z8 | z8 | z8 | z8 | z8 | z8 | z8 | z8 | z8 | z8 | %19
 z8 | z8 | z8 |!pp!!ped! (3z [A,C][A,C] (3[A,C][A,C][A,C] (3z [A,C][A,C] (3[A,C][A,C][A,C] | %23
 (3z [A,C][A,C] (3[A,C][A,C][A,C] (3z [A,C][A,C] (3[A,C][A,C][A,C] | %24
 (3z [A,C][A,C] (3[A,C][A,C][A,C] (3z [A,C][A,C] (3[A,C]!ped-up![A,C][A,C] | %25
!ped! (3z [E,G,B,][E,G,B,] (3[E,G,B,][E,G,B,][E,G,B,] (3z [E,G,B,][E,G,B,] (3[E,G,B,]!ped-up![E,G,B,][E,G,B,] | %26
!ped! (3z [E,G,B,][E,G,B,] (3[E,G,B,][E,G,B,][E,G,B,] (3z [E,G,B,][E,G,B,] (3[E,G,B,][E,G,B,][E,G,B,] | %27
 (3z [E,G,B,][E,G,B,] (3[E,G,B,][E,G,B,][E,G,B,] (3z [E,G,B,][E,G,B,] (3[E,G,B,]!ped-up![E,G,B,][E,G,B,] | %28
 (3z [A,C][A,C] (3[A,C][A,C][A,C] (3z [A,C][A,C] (3[A,C][A,C][A,C] | %29
[K:treble]!ped! (3z!pp! [C_EF][CEF] (3[CEF][CEF][CEF] (3z [CEF][CEF] (3[CEF][CEF][CEF]!ped-up! | %30
 (3z [DF][DF] (3[DF][DF][DF]!ped! (3z [DF][DF] (3[DF][DF][DF]!ped-up! | %31
!ped! (3z!pp! [DF_A][DFA] (3[DFA][DFA][DFA] (3z [DFA][DFA] (3[DFA][DFA][DFA]!ped-up! | %32
!ped! (3z [FA][FA] (3[FA][FA][FA] (3z [FA][FA] (3[FA]!ped-up![FA][FA] | %33
!pp!!ped! (3z [GB][GB] (3[GB][GB][GB]!pp! (3z [GB][GB] (3[GB][GB][GB]!ped-up! | [FA]2 z2 z4 | z8 | %36
[K:bass]!pp! D,2 z2 D2 A,2 | D,2 z2 D,2 z2 | [=C,,=C,]2 z2 C,2 z2 | F,2 z2 F,2 z2 | E,2 z2 E,2 z2 | %41
 F,2 z2 F,2 z2 | ^F,2 z2 F,2 z2 | G,2 z2 z4 |!p!!ped! [G,,G,]2 z2!ped-up! z4 | %45
!ped! [G,,G,]2 z2!ped-up! z4 |!ped! [G,,G,]2 z2!ped-up! z4 |!ped!"_dim." [G,,G,]2 z2!ped-up! z4 | %48
 [G,,G,]2 z2 z2 =F,2 |!pp!!ped! (3E,G,C (3C,E,C!ped-up!!ped! (3F,A,C!ped-up!!ped! (3D,A,C!ped-up! | %50
!ped! (3G,CD!ped-up!!ped! (3F,CD!ped-up!!ped! (3G,CD!ped-up!!ped! (3G,=B,D!ped-up! | %51
!ped! (3^G,=B,D!ped-up!!ped! (3A,CE!ped-up!!ped! (3=G,CE!ped-up!!ped! (3F,B,D!ped-up! | %52
!pp!!ped! (3E,G,C (3C,E,C!ped-up!!ped! (3F,A,C!ped-up!!ped! (3D,A,C!ped-up! | %53
!ped! (3G,CD!ped-up!!ped! (3F,CD!ped-up!!ped! (3G,CD!ped-up!!ped! (3G,=B,D!ped-up! | %54
!ped! [CE]2 z2 z4!ped-up! | z8 | z8 |!mp!!ped! (3G,_B,D (3G,B,D (3G,B,D (3G,B,D!ped-up! | %58
!ped! (3G,B,^C (3G,B,C (3G,B,C!ped-up! (3G,B,C | %59
 (3G,A,=E (3G,A,E!ped![K:treble] (3A,EA (3A,E!ped-up!A | [DA]2 z2 z4 | %61
[K:bass]!p!!ped! B,2 z2!ped-up! B,2 z2 | C2 z2 C2 z2 | F,2 z2 F,2 z2 | B,2 z2 B,2 z2 | %65
 [A,,A,]2 z2 z4 | [B,,B,]2 z2 z4 | [G,,G,]2 z2 z4 | [_A,,_A,]2 z2 z4 | z4 =B,4 | [C,C]2 z2 z4 | %71
 z8 |!pp!!ped! (3z [C_E][CE] (3[CE][CE][CE] (3z [CE][CE] (3[CE][CE][CE] | %73
 (3z [C_E][CE] (3[CE][CE][CE] (3z [CE][CE] (3[CE]!ped-up![CE][CE] | %74
!ped! (3z [B,_D_E][B,DE] (3[B,DE][B,DE][B,DE]!ped-up!!ped! (3z [B,DE][B,DE] (3[B,DE][B,DE][B,DE]!ped-up! | %75
!ped! (3z [G,B,_D][G,B,D] (3[G,B,D][G,B,D][G,B,D]!ped-up!!ped! (3z [G,B,D][G,B,D] (3[G,B,D][G,B,D][G,B,D] | %76
 (3z [G,B,_D][G,B,D] (3[G,B,D][G,B,D][G,B,D] (3z!ped-up! [G,B,D][G,B,D] (3[G,B,D][G,B,D][G,B,D] | %77
 (3z [C_E][CE] (3[CE][CE][CE] (3z [CE][CE] (3z [CE][CE] | %78
!ped! (3z [A,C_E][A,CE]!ped-up!!ped! (3[A,CE][A,CE][A,CE]!ped-up!!ped! (3z [A,CE][A,CE]!ped-up!!ped! (3[A,CE][A,CE][A,CE]!ped-up! | %79
!ped! (3z [_DF][DF] (3[DF][DF][DF]!ped-up!!p!!ped! (3z [DF][DF]!ped-up!!ped! (3z [CF][CF]!ped-up! | %80
!ped! (3z [=B,DF][B,DF] (3[B,DF][B,DF][B,DF]!ped-up!!ped! (3z [B,DF][B,DF] (3[B,DF][B,DF][B,DF]!ped-up! | %81
 [C=E]2 z2 z4 |!p! [C,C]2 z2 z4 | [C,C]2 z2 z4 | [C,C]2 z2 z4 | [C,C]2 z2 z4 | [C,C]2 z2 z2 A,,2 | %87
!pp!!ped! (3A,,C,F, (3F,,A,,F,!ped-up!!ped! (3B,,D,F,!ped-up!!ped! (3G,,D,F,!ped-up! | %88
!ped! (3C,F,G, (3B,,F,G,!ped-up!!ped! (3C,F,G, (3C,E,G,!ped-up! | %89
!ped! (3^C,E,G,!ped-up!!ped! (3D,F,A,!ped-up!!ped! (3=C,F,A,!ped-up!!ped! (3B,,E,G,!ped-up! | %90
!pp!!ped! (3A,,C,F, (3F,,A,,F,!ped-up!!ped! (3B,,D,F,!ped-up!!ped! (3G,,D,F,!ped-up! | %91
!ped! (3C,F,G, (3=B,,F,G,!ped-up!!ped! (3C,F,G, (3C,E,G,!ped-up! | [F,A,]2 z2 z4 | %93
[K:treble]!ped! (3z!pp! [C_EF][CEF] (3[CEF][CEF][CEF] (3z [CEF][CEF] (3[CEF][CEF][CEF]!ped-up! | %94
 [B,DF]2 z2 z4 | %95
!ped! (3z!pp! [DF_A][DFA] (3[DFA][DFA][DFA] (3z [DFA][DFA] (3[DFA][DFA][DFA]!ped-up! | %96
!ped! (3z [FA][FA] (3[FA][FA][FA] (3z [FA][FA] (3[FA]!ped-up![FA][FA] | %97
!pp!!ped! (3z [GB][GB] (3[GB][GB][GB]!ped-up!!pp!!ped! (3z [GB][GB] (3[GB][GB][GB]!ped-up! | %98
 [FA]2 z2 z2 A>F |!ped! c2 c2 c2 c2!ped-up! | c2 f2 z2 A>F | c2 c2 c3 (3B/A/G/ | F2 z2 [FA]2 z2 | %103
 [FA]2 z2 z4 |] %104
V:3
 x8 | x8 | x8 | x8 | x8 | x8 | x8 | x8 | x8 | x8 | x8 | x8 | x8 | x8 | x8 | x8 | x8 | x8 | x8 | %19
 x8 | x8 | x8 | F,4 F,4 | F,4 F,4 | F,4 F,4 | C,4 C,4 | C,4 C,4 | C,4 C,4 | F,4 F,4 | %29
[K:treble] A,4 A,4 | B,4 B,4 | =B,4 B,4 | C4 C4 | C4 C4 | x8 | x8 |[K:bass] x8 | x8 | x8 | x8 | %40
 x8 | x8 | x8 | x8 | x8 | x8 | x8 | x8 | x8 | x8 | x8 | x8 | x8 | x8 | x8 | x8 | x8 | x8 | x8 | %59
 x4[K:treble] x4 | x8 |[K:bass] x8 | x8 | x8 | x8 | x8 | x8 | x8 | x8 | _D,8 | x8 | x8 | _A,4 A,4 | %73
 _A,4 A,4 | G,4 G,4 | _E,4 E,4 | _E,4 E,4 | _A,4 A,2 _G,2 | F,4 F,4 | B,4 B,2 _A,2 | =G,4 G,4 | %81
 x8 | x8 | x8 | x8 | x8 | x8 | x8 | x8 | x8 | x8 | x8 | x8 |[K:treble] A,4 A,4 | x8 | =B,4 B,4 | %96
 C4 C4 | C4 C4 | x8 | x8 | x8 | x8 | x8 | x8 |] %104
V:4
!p! (3[F,A,C][F,A,C][F,A,C] (3[F,A,C][F,A,C][F,A,C] (3[F,A,C][F,A,C][F,A,C] (3[F,A,C][F,A,C][F,A,C] | %1
!p! f7/2 c/ a7/2 f/ | c'6 b/a/g/f/ | ^f2!pp! g2 z4 |!p! c4 e2 g2 | b4- bd'c'b | ^g!pp!a a2 z4 | %7
!f! [_ef-c']8 |!p! [dfb]8 |!f! [f_a-d']8 |!p! [fac']6!mf! c'2 | z2!p! [B_dg]2 [e_d']2!mf! z2 | %12
 z2!p! [c_a]2 [fc']2!mf! z2 | z2!p! [B_de]2 [cb]2!mf! z2 | z2!p! [_A=Bf]2 [=d_a]2!mf! z2 | %15
!mf! z2!mp! f2!p! e2!mf! c2 | f4!>(! edcB!>)! |!p! G6!mp! c2 | %18
 B2!p! A2 (3z!<(! [cc'][^c^c'] (3[dd'][_e_e'][=e=e']!<)! |!mf! [ff']4 [ee'][dd'][cc'][Bb] | %20
 [Gg]4- [Gg]a/4g/4^f/4g/4 [cc']2 | %21
!mp! (3[Ff]!p![FAc][FAc]!>(! (3[FAc][CFA][CFA] (3[CFA][A,CF][A,CF] (3[A,CF][A,CF][A,CF]!>)! | %22
!pp! [A,CF] z A z c z z2 | F z A z c z z2 | F z A z c z F z | C z E z G z z2 | C z E z G z z2 | %27
 C z E z G z C z | F z A z c z z2 |!mp! [_ef-c']8 | [dfb]8 |!mp! [f_ad']8 | [f=ac']8 | %33
!pp! [gbe']8 |!pp! (3[faf'][Acf][Acf] (3[Acf][Acf][Acf]!pp! a4 |!pp! b4!pp! ^c4 | %36
!pp! (3[faf'][DF][EG] (3[FA][FA][FA] (3z [DF][FA] (3z [^CE][EG] | %37
 (3z [DF][EG] (3[FA][FA][FA] (3z [DF][EG] (3[FA][FA][FA] | %38
 (3z [G,EG][A,F] (3[B,G][B,G][B,G] (3z [CE][DF] (3[EG][EG][EG] | %39
 (3z [CE][CEG] (3[CA][CA][CA] (3[CA][CA][CA] (3[CA][CA][CA] | %40
 (3[CG][EGc][EGc] (3[EGc][EGc][EGc] (3[EGc][EGc][EGc] (3[EGc][EGc][EGc] | %41
 (3[DAc][DAc][DAc] (3[DAc][DAc][DAc] (3[DAc][DAc][DAc] (3[DAc][DAc][DAc] | %42
 (3[DAc][DAc][DAc] (3[DAc][DAc][DAc] (3[DAc][DAc][DAc] (3[DAc][DAc][DAc] | =B2 g2 _e2!pp! c2- | %44
 _a6 d2 | g6 c2 | f6 =B2 |"_dim." z2 [c_e^f]2 [f=a]2 z2 | z2 [_af']2 [gd']2 !arpeggio![G=b]2 | %49
!pp! c'2 z2 z4 | D6 G2 | F2 E2 z4 | [cc']4 [=B=b][Aa][Gg][Ff] | [Dd]6 [Gg]2 |!pp!!<(! c8 | _e'8 | %56
 d'4 Tc'3 b/c'/!<)! |!mp! [gb]2 z2 z4 | z8 | z8 |!f! [Ff]4!f! [_e_e']3!f! a | %61
 (3[Bdfb]!p![Bd][c_e] (3[df][df][df] (3z [DB][_Ec] (3[Fd][Fd][Fd] | %62
 (3z [A,C][B,D] (3[C_E][CE][CE] (3z [Ac][Bd] (3[c_e][ce][ce] | %63
 (3z [FA][GB] (3[Ac][Ac][Ac] (3z [fa][gb] (3[ac'][ac'][ac'] | %64
 (3z [B,D][C_E] (3[DF][DF][DF] (3z [Bd][c_e] (3[df][df][df] | [_e^f_e']8 | [dgd']8 | [_d=ed']8 | %68
 [c=fc']8 |!p! _A4 =B4 | c2 z2 z4 |!pp! [G_e]4 [_Bg]4 | [c_a]2 C z _E z z2 | _A, z C z _E z A, z | %74
 [_E_e]8- | [Ee]8- | [Ee]8- | [Ee]2 c z _e z"_cresc." _G z | [_G_g]4!pp! [Ff]2 [_E_e]2 | %79
!pp! [_D_d]2 d z!p! f z _A z | [_A_a]4 [=G=g]2 [Ff]2 | =e2 c'2 _a2 f2 | %82
!mp! z2!p! [B_dg]2 [e_d']2!mp! z2 | z2!p! [c_a]2 [fc']2!mp! z2 | z2!p! [B_de]2 [cb]2!mp! z2 | %85
 z2!p! [_A=Bf]2 [=d_a]2 z2 |!p! z2!mp! f2!p! e2 c2!pp! | f4 edcB | G6 c2 | B2 A2 z4 | %90
 [ff']4 [ee'][dd'][cc'][Bb] | [Gg]6 [cc']2 |!pp! [ff']8 | [F,C_EF]2 z2 z4 |!p! d2 ^c2 d2 =e2 | %95
!p! f2 z2 z4 | [cf=ac']8 |!pp! !arpeggio![cbe']8 | (3!arpeggio![Afaf']CC (3CCC (3CCC (3CCC | %99
!pp!!<(! (3[CEGBc][CEGBc][CEGBc] (3[CEGBc][CEGBc][CEGBc] (3[CEGBc][CEGBc][CEGBc] (3[CEGBc][CEGBc][CEGBc] | %100
 (3[CFAc][CFAc][CFAc]!<)!!pp! (3[CFAc][CFAc][CFAc] (3[CFAc][CFAc][CFAc] (3[CFAc][CFAc][CFAc] | %101
!>(! (3[CEGBc][CEGBc][CEGBc] (3[CEGBc][CEGBc][CEGBc] (3[CEGBc][CEGBc][CEGBc] (3[CEGBc][CEGBc][CEGBc]!>)! | %102
!pp!!>(! (3[CFAc][CFAc][CFAc] (3[CFAc][CFA][CFA] (3[CFA][A,CF][A,CF] (3[A,CF][A,CF][A,CF]!>)! | %103
!ppp! [A,CF]2 z2 z4 |] %104
V:5
!p!!ped! !>!F,, z!ped-up!!ped! A,, z!ped-up!!ped! C, z z2!ped-up! | %1
!p!!ped! (3z!pp! [F,A,C][F,A,C]!ped-up!!p!!ped! (3z!pp! [F,A,C][F,A,C]!ped-up!!p!!ped! (3z!pp! [F,A,C][F,A,C] (3[F,A,C][F,A,C][F,A,C]!ped-up! | %2
!p!!ped! (3z!pp! [F,A,C][F,A,C]!ped-up!!p!!ped! (3z!pp! [F,A,C][F,A,C]!ped-up!!p!!ped! (3z!pp! [F,A,C][F,A,C]!ped-up!!p!!ped! (3z!pp! [F,A,C][F,A,C]!ped-up! | %3
!p!!ped! (3z!pp! [E,B,C][E,B,C]!ped-up!!p!!ped! (3z!pp! [E,B,C][E,B,C]!ped-up!!p!!ped! (3z!pp! [E,B,C][E,B,C] (3[E,B,C][E,B,C][E,B,C]!ped-up! | %4
!p!!ped! (3z!pp! [E,B,C][E,B,C]!ped-up!!p!!ped! (3z!pp! [E,B,C][E,B,C]!ped-up!!p!!ped! (3z!pp! [E,B,C][E,B,C] (3[E,B,C][E,B,C][E,B,C]!ped-up! | %5
!p!!ped! (3z!pp! [E,B,C][E,B,C]!ped-up!!p!!ped! (3z!pp! [E,B,C][E,B,C]!ped-up!!p!!ped! (3z!pp! [E,B,C][E,B,C] (3z [E,G,C][E,G,C]!ped-up! | %6
!p!!ped! (3z!pp! [F,A,C][F,A,C]!ped-up!!p!!ped! (3z!pp! [F,A,C][F,A,C]!ped-up!!p!!ped! (3z!pp! [F,A,C][F,A,C] (3[F,A,C][F,A,C][F,A,C]!ped-up! | %7
!f!!ped! (3A,,!pp![C_EF][CEF]!ped-up!!p!!ped! (3C,!pp![CEF][CEF]!ped-up!!p!!ped! (3F,!pp![CEF][CEF] (3[CEF][CEF][CEF]!ped-up! | %8
!p!!ped! (3B,,!pp![DF][DF]!ped-up!!p!!ped! (3D,!pp![DF][DF]!ped-up!!p!!ped! (3F,!pp![B,DF][B,DF] (3[B,DF][B,DF][B,DF]!ped-up! | %9
!f!!ped! (3=B,,!pp![_A,DF][A,DF]!ped-up!!p!!ped! (3D,!pp![A,DF][A,DF]!ped-up!!p!!ped! (3F,!pp![A,DF][A,DF] (3[A,DF][A,DF][A,DF]!ped-up! | %10
!p!!ped! (3C,!pp![_A,CF][A,CF]!ped-up!!p!!ped! (3F,!pp![A,CF][A,CF]!ped-up!!p!!ped! (3A,!pp![A,CF][A,CF] (3[A,CF][A,CF][A,CF]!ped-up! | %11
!p!!ped! (3[C,,C,]!pp![G,B,F][G,B,F]!ped-up!!p!!ped! (3[G,,G,]!pp![G,B,E][G,B,E]!ped-up!!p!!ped! (3[B,,B,]!pp![B,EG][B,EG] (3[B,EG][B,EG][B,EG]!ped-up! | %12
!p!!ped! (3[C,,C,]!pp![_A,CG][A,CG]!ped-up!!p!!ped! (3[_A,,A,]!pp![A,CF][A,CF]!ped-up!!p!!ped! (3[C,C]!pp![CF_A][CFA] (3[CFA][CFA][CFA]!ped-up! | %13
!p!!ped! (3[C,,C,]!pp![_DE_A][DEA]!ped-up!!p!!ped! (3[E,,E,]!pp![DEG][DEG]!ped-up!!p!!ped! (3[G,,G,]!pp![CEB][CEB] (3[CGB][CGB][CGB]!ped-up! | %14
!p!!ped! (3[C,,C,]!pp![=B,F_B][B,FB]!ped-up!!p!!ped! (3!>![F,,F,]!pp![B,F_A][B,FA]!ped-up!!p!!ped! (3[_A,,_A,]!pp![DF=B][DFB] (3[FAB][FAB][FAB]!ped-up! | %15
!p!!ped! [C,,C,] z!ped-up!!ped! [G,,G,] z!ped-up!!ped! [_B,,_B,] z!ped-up!!ped! (3[B,,,B,,]!pp![G,CE][G,CE]!ped-up! | %16
!p!!ped! (3[A,,,A,,]!pp![A,CF][A,CF]!ped-up!!p!!ped! (3!>![F,,F,]!pp![A,CF][A,CF]!ped-up!!p!!ped! (3[B,,,B,,]!pp![G,DF][G,DF]!ped-up!!p!!ped! (3[G,,G,]!pp![G,DF][G,DF]!ped-up! | %17
!p!!ped! (3[C,,C,]!pp![G,CF][G,CF]!ped-up!!p!!ped! (3[B,,,B,,]!pp![G,DF][G,DF]!ped-up!!p!!ped! (3[C,,C,]!pp![G,CF][G,CF]!ped-up!!p!!ped! (3[C,,C,]!pp![G,CE][G,CE]!ped-up! | %18
!p!!ped! (3[^C,,^C,]!pp![G,E][G,E]!ped-up!!p!!ped! (3[D,,D,]!pp![F,F][F,F]!ped-up!!p!!ped! (3[=C,,=C,]!pp![A,F][A,F]!ped-up!!p!!ped! (3[B,,,B,,]!pp![CG][CG]!ped-up! | %19
!p!!ped! (3[A,,,A,,]!pp![A,CF][A,CF]!ped-up!!p!!ped! (3!>![F,,F,]!pp![A,CF][A,CF]!ped-up!!p!!ped! (3[B,,,B,,]!pp![G,DF][G,DF]!ped-up!!p!!ped! (3[G,,G,]!pp![G,DF][G,DF]!ped-up! | %20
!p!!ped! (3[C,,C,]!pp![G,CF][G,CF]!ped-up!!p!!ped! (3[B,,,B,,]!pp![G,DF][G,DF]!ped-up!!p!!ped! (3[C,,C,]!pp![G,CF][G,CF]!ped-up!!p!!ped! (3[C,,C,]!pp![B,CE][B,CE]!ped-up! | %21
!ped! (3!>![F,,F,][F,A,C][F,A,C]!>(! (3[F,A,C][F,A,][F,A,] (3[F,A,][F,,C,F,][F,,C,F,] (3[F,,C,F,][F,,C,F,][F,,C,F,]!ped-up!!>)! | %22
 [F,,F,] z [A,,A,] z [C,C] z z2 | !>![F,,F,] z [A,,A,] z [C,C] z z2 | %24
 !>![F,,F,] z [A,,A,] z [C,C] z !>![F,,F,] z | [C,,C,] z [E,,E,] z [G,,G,] z z2 | %26
 [C,,C,] z [E,,E,] z [G,,G,] z z2 | [C,,C,] z [E,,E,] z [G,,G,] z [C,,C,] z | %28
 [F,,F,] z [A,,A,] z [C,C] z z2 | [A,,,A,,] z!p! [C,,C,] z!pp! [F,,F,] z z2 | %30
 [B,,,B,,] z [D,,D,] z [F,,F,] z z2 | [=B,,,=B,,] z!p! [D,,D,] z [F,,F,] z z2 | %32
 [C,,C,] z [F,,F,] z [A,,A,] z [C,C] z |!p! [_B,,_B,] z [G,,G,] z [C,C] z [C,,C,] z | %34
!ped! !>![F,,F,] z [A,,A,] z!ped-up!!ped! [C,C] z z2!ped-up! | %35
!ped! [E,,E,] z [G,,G,] z!ped-up!!ped! [A,,A,] z [A,,,A,,] z!ped-up! | %36
!ped! !>![F,,F,]2 z2!ped-up!!ped! D, z A,, z!ped-up! | %37
!ped! [D,,D,]2 z2!ped-up!!ped! [D,,D,]2 z2!ped-up! | %38
!ped! [C,,C,]2 z2!ped-up!!ped! [C,,C,]2 z2!ped-up! |!ped! !>![F,,F,]2!ped-up!!ped! z2 z4!ped-up! | %40
!ped! [E,,E,] z [G,,G,] z [C,C] z z2!ped-up! |!ped! [F,,F,] z [A,,A,] z [D,D] z z2!ped-up! | %42
!ped! [^F,,^F,] z [A,,A,] z [D,D] z z2!ped-up! | %43
!ped! [G,,G,]2 (3[D,=B,][D,B,][D,B,]!ped-up! (3[C,C][C,C][C,C] (3[_E,G,C][E,G,C][E,G,C] | %44
!ped! (3G,,[D,F,C][D,F,C]!ped-up!!ped! (3D,[F,_A,=B,][F,A,B,]!ped-up!!ped! (3F,[F,A,B,][F,A,B,] (3[F,A,B,][F,A,B,][F,A,B,]!ped-up! | %45
!ped! (3G,,[_E,G,D][E,G,D]!ped-up!!ped! (3E,[G,C][G,C]!ped-up!!ped! (3G,[C_E][CE] (3[CE][CE][CE]!ped-up! | %46
!ped! (3G,,[_A,=B,_E][A,B,E]!ped-up!!ped! (3=B,,[F,A,B,D][F,A,B,D]!ped-up!!ped! (3D,[G,B,F][G,B,F] (3[G,DF][G,DF][G,DF]!ped-up! | %47
!ped! (3G,,[^F,C^F][F,CF]!ped-up!!ped! (3C,[F,C_E][F,CE]!ped-up!!ped! (3_E,[A,CF][A,CF] (3[CEF][CEF][CEF]!ped-up! | %48
!ped! (3G,,[CDG][CDG]!ped-up!!ped! (3D,[CD_A][CDA]!ped-up!!ped! (3F,[=B,DG][B,DG]!ped-up!!ped! (3!>!F,,[G,B,D][G,B,D]!ped-up! | %49
 [=E,,=E,] z [C,C] z !>![F,,F,] z [D,,D,] z | [G,,G,] z !>![F,,F,] z [G,,G,] z [G,,G,] z | %51
 [^G,,^G,] z [A,,A,] z [=G,,=G,] z !>![F,,F,] z | [E,,E,] z [C,,C,] z !>![F,,F,] z [D,,D,] z | %53
 [G,,G,] z !>![F,,F,] z [G,,G,] z [G,,,G,,] z | %54
!pp!!ped!!<(! (3!>![C,,C,][E,G,C][E,G,C]!ped-up!!ped! (3!>!G,,[E,G,C][E,G,C]!ped-up!!ped! (3!>!C,[E,G,C][E,G,C]!ped-up!!ped! (3!>!B,,[E,G,C][E,G,C]!ped-up! | %55
!ped! (3!>!A,,[A,C^F][A,CF]!ped-up!!ped! (3!>!C,[A,CF][A,CF]!ped-up!!ped! (3!>!A,,[A,CF][A,CF]!ped-up!!ped! (3!>!G,,[C_EG][CEG]!ped-up! | %56
!ped! (3!>!^F,,[CDA][CDA]!ped-up!!ped! (3!>!A,,[CDA][CDA]!ped-up!!ped! (3!>!D,[CDA][CDA]!ped-up!!ped! (3!>!^F,[CDA][CDA]!<)!!ped-up! | %57
!pp! [G,B,DG] z z2 z4 |!mf! _E,6 D,2 | ^C,2 =E,2 A,,2 C,2 | %60
!ped! [D,,D,] z [D,D] z!ped-up!!ped! [=C,=C] z !>![F,,F,]!ped-up! z | %61
 [B,,B,] z!ped! z2!ped-up!!ped! [B,,B,] z z2!ped-up! | %62
 [C,C]2!ped! z2!ped-up!!ped! [C,C]2 z2!ped-up! | %63
 !>![F,,F,]2!ped! z2!ped-up!!ped! !>![F,,F,]2 z2!ped-up! | %64
!ped! [B,,B,]2 z2!ped-up!!ped! [B,,B,]2 z2!ped-up! | %65
!ped! (3A,,!mp![C_E^F][CEF]!ped-up!!ped! (3C,[CEF][CEF]!ped-up!!p!!ped! (3F,[CEF][CEF] (3[CEF][CEF][CEF]!ped-up! | %66
!ped! (3B,,!mp![B,DG][B,DG]!ped-up!!ped! (3D,[B,DG][B,DG]!ped-up!!p!!ped! (3G,[B,DG][B,DG] (3[B,DG][B,DG][B,DG]!ped-up! | %67
!ped! (3G,,!mp![B,_D=E][B,DE]!ped-up!!ped! (3B,,[B,DE][B,DE]!ped-up!!p!!ped! (3E,[B,DE][B,DE] (3[B,DE][B,DE][B,DE]!ped-up! | %68
!ped! (3_A,,!mp![_A,CF][A,CF]!ped-up!!ped! (3C,[A,CF][A,CF]!ped-up!!p!!ped! (3F,[A,CF][A,CF] (3[A,CF][A,CF][A,CF]!ped-up! | %69
 [_D,F,]8 | [C,G,]2 z2 z4 |!ped! _E8!ped-up! | [_A,,,_A,,] z [C,,C,] z [_E,,_E,] z z2 | %73
 [_A,,,_A,,] z [C,,C,] z [_E,,_E,] z [A,,,A,,] z | [G,,,G,,] z [_B,,,_B,,] z [_E,,_E,] z z2 | %75
 [_E,,_E,] z [G,,G,] z [_B,,_B,] z z2 | [_E,,_E,] z [G,,G,] z [_B,,_B,] z [E,,E,] z | %77
 [_A,,_A,] z [C,C] z [_E,_E] z [_G,,_G,] z | !>![F,,F,] z [=A,,=A,] z [C,C] z z2 | %79
 [B,,B,] z [_D,_D] z [F,F] z [_A,,_A,] z | [=G,,=G,] z [=B,,=B,] z [=D,=D] z z2 | %81
!ped! (3z CC (3[G,=E][G,E][G,E]!ped-up!!ped! (3[F,F][F,F][F,F] (3[_A,C][A,C][A,C]!ped-up! | %82
!p!!ped! (3[C,,C,]!pp![G,B,F][G,B,F]!ped-up!!p!!ped! (3[G,,G,]!pp![G,B,E][G,B,E]!ped-up!!p!!ped! (3[B,,B,]!pp![B,EG][B,EG] (3[B,EG][B,EG][B,EG]!ped-up! | %83
!p!!ped! (3[C,,C,]!pp![_A,CG][A,CG]!ped-up!!p!!ped! (3[_A,,A,]!pp![A,CF][A,CF]!ped-up!!p!!ped! (3[C,C]!pp![CF_A][CFA] (3[CFA][CFA][CFA]!ped-up! | %84
!p!!ped! (3[C,,C,]!pp![_DE_A][DEA]!ped-up!!p!!ped! (3[E,,E,]!pp![DEG][DEG]!ped-up!!p!!ped! (3[G,,G,]!pp![CEB][CEB] (3[CGB][CGB][CGB]!ped-up! | %85
!p!!ped! (3[C,,C,]!pp![=B,F_B][B,FB]!ped-up!!p!!ped! (3!>![F,,F,]!pp![B,F_A][B,FA]!ped-up!!p!!ped! (3[_A,,_A,]!pp![DF=B][DFB] (3[FAB][FAB][FAB]!ped-up! | %86
!p!!ped! [C,,C,] z!ped-up!!ped! [G,,G,] z!ped-up!!ped! [_B,,_B,] z!ped-up!!ped! [B,,,B,,] z!ped-up! | %87
 [=A,,,=A,,] z !>![F,,F,] z [B,,,B,,] z [G,,G,] z | [C,,C,] z [B,,,B,,] z [C,,C,] z [C,,C,] z | %89
 [^C,,^C,] z [D,,D,] z [=C,,=C,] z [B,,,B,,] z | [=A,,,=A,,] z !>![F,,F,] z [B,,,B,,] z [G,,G,] z | %91
 [C,,C,] z [=B,,,=B,,] z [C,,C,] z [C,,C,] z | %92
!ped!!<(! (3[F,A,CF][F,A,CF][F,A,CF]!ped-up!!ped! (3[F,^G,=B,F][F,G,B,F][F,G,B,F]!ped-up!!ped! (3[F,A,CF][F,A,CF][F,A,CF]!ped-up!!ped! (3[F,=B,DF][F,B,DF][F,B,DF]!<)!!ped-up! | %93
!p! [A,,,A,,] z [C,,C,] z !>![F,,F,] z [A,,,A,,] z | %94
!ped! (3B,,B,,B,,!ped-up!!ped! (3B,,B,,B,,!ped-up!!ped! (3B,,B,,B,,!ped-up!!ped! (3B,,B,,B,,!ped-up! | %95
 [=B,,,=B,,] z [D,,D,] z !>![F,,F,] z [B,,,B,,] z | [C,,C,] z !>![F,,F,] z [A,,A,] z [C,C] z | %97
 [B,,B,] z [G,,G,] z [C,C] z [C,,C,] z | %98
!pp!!ped! !>![F,,F,] z!ped-up!!ped! [A,,A,] z!ped-up!!ped! [C,C] z z2!ped-up! | %99
!ped! [C,,C,] z!ped-up!!ped! [E,,E,] z!ped-up!!ped! [G,,G,] z!ped-up!!ped! [C,,C,] z!ped-up! | %100
!ped! !>![F,,F,] z!ped-up!!ped! [A,,A,] z!ped-up!!ped! [C,C] z z2!ped-up! | %101
!ped! [C,,C,] z!ped-up!!ped! [E,,E,] z!ped-up!!ped! [G,,G,] z!ped-up!!ped! [C,,C,] z!ped-up! | %102
!ped! !>![F,,F,] z [A,,A,] z [C,C] z [A,,A,] z | [F,,C,F,]2!ped-up! z2 z4 |] %104
V:6
 x8 | !>!F,, z A,, z C, z z2 | !>!F,, z A,, z C, z !>!F,, z | C,, z E,, z G,, z z2 | %4
 C,, z E,, z G,, z z2 | C,, z E,, z G,, z C,, z | F,, z A,, z C, z z2 | x8 | x8 | x8 | x8 | x8 | %12
 x8 | x8 | x8 | x8 | x8 | x8 | x8 | x8 | x8 | x8 | x8 | x8 | x8 | x8 | x8 | x8 | x8 | x8 | x8 | %31
 x8 | x8 | x8 | x8 | x8 | x8 | x8 | x8 | x8 | x8 | x8 | x8 | x8 | x8 | x8 | x8 | x8 | x8 | x8 | %50
 x8 | x8 | x8 | x8 | x8 | x8 | x8 | x8 | _E,, z G,, z E,, z D,, z | ^C,, z =E,, z A,,, z C,, z | %60
 x8 | x8 | x8 | x8 | x8 | x8 | x8 | x8 | x8 | x8 | x8 | C4 _B,4 | x8 | x8 | x8 | x8 | x8 | x8 | %78
 x8 | x8 | x8 | [C,,C,]2 z2 z4 | x8 | x8 | x8 | x8 | x8 | x8 | x8 | x8 | x8 | x8 | x8 | x8 | %94
 B,,,2 z2 z4 | x8 | x8 | x8 | x8 | x8 | x8 | x8 | x8 | x8 |] %104
V:7
 x8 | x8 | x8 | x8 | x8 | x8 | x8 | c'4!p! A,3[I:staff +1] A, | CB, B,2[I:staff -1] z4 | %9
 d'4!p! =B,3[I:staff +1] =B, | C6[I:staff -1] x2 | _d'6 g2 | c'6 f2 | b6 e2 | _a6 d2 | g6 c2 | x8 | %17
 x8 | x8 | x8 | x8 | x8 | x8 | x8 | x8 | x8 | x8 | x8 | x8 | x8 | x8 | x8 | x8 | x8 | %34
 x4 (3z!pp! [FAc][FAc] (3[FAc][FAc][FAc] | %35
 (3z!pp! [GA^c][GAc] (3[GA][GAc][GAc] (3z!pp! [eg^c'][egc'] (3[egc'][egc'][egc'] | x4 A,4- | %37
 A,2 z2 A,2 z2 | C2 z2 x4 | x8 | x8 | x8 | x8 | (3[DG][DG][DG] (3GGG (3_EEE c2 | c2 =B2 d4- | %45
 d2 c2 _e4- | e2 [=Bd_a]2 [fg]2 z2 | _e6 =A2 | d6 G2 | c4 =BAGF | x8 | x8 | x8 | x8 | x8 | %55
 c2 ^f4 g2 | a2 ^f4 a2 | x8 | x8 | x8 | %60
 (3z!mp! [Ad][Ad] (3[Ad][Ad][Ad] (3z!mp! [A_ef][Aef] (3[Aef][Aef]!mp![cef] | x8 | x8 | x8 | x8 | %65
 x8 | x8 | x8 | x8 | F8 | E2 x2 x4 | x8 | x8 | x8 | x8 | x8 | x8 | x8 | x8 | x8 | x8 | %81
 (3[=EG][EG][EG] (3ccc (3_AAA (3FFF | _d'6 g2 | c'6 f2 | b6 e2 | _a6 d2 | g6 (3z [EG][EG] | x8 | %88
 x8 | z2 [FA]4 [CG]2 | x8 | x8 | x8 | x8 | %94
 (3[DF]"_cresc."[DF][DF] (3[^C=E][CE][CE] (3[DF][DF][DF] (3[EG^c][EGc]!mp![EGc] | [F_Ad]2 z2 z4 | %96
 x8 | g4 e4 | x8 | x8 | x8 | x8 | x8 | x8 |] %104
V:8
 x8 | x8 | x8 | x8 | x8 | x8 | x8 | x8 | x8 | x8 | x8 | x8 | x8 | x8 | x8 | %15
 (3z!pp! [FGc][FGc] (3z!pp! [G_B_d][GBd] (3z!pp! [Gc][Gc] z2 | x8 | x8 | x8 | x8 | x8 | x8 | x8 | %23
 x8 | x8 | x8 | x8 | x8 | x8 | x8 | x8 | x8 | x8 | x8 | x8 | x8 | x8 | x8 | x8 | x8 | x8 | x8 | %42
 x8 | x8 | x8 | x8 | x8 | x8 | x8 | x8 | x8 | x8 | x8 | x8 | x8 | x8 | x8 | x8 | x8 | x8 | x8 | %61
 x8 | x8 | x8 | x8 | x8 | x8 | x8 | x8 | x8 | x8 | x8 | x8 | x8 | x8 | x8 | x8 | x8 | x8 | x8 | %80
 x8 | x8 | x8 | x8 | x8 | x8 | (3z!pp! [FGc][FGc] (3z!pp! [G_B_d][GBd] (3z!pp! [Gc][Gc] c2 | x8 | %88
 x8 | x8 | x8 | x8 | x8 | x8 | x8 | x8 | x8 | x8 | x8 | x8 | x8 | x8 | x8 | x8 |] %104

